static/img/kroki/1c2b251f51a68c46da4ef74f55b6ff35.svg

<?xml version="1.0" encoding="us-ascii" standalone="no"?><svg xmlns="http://www.w3.org/2000/svg" xmlns:xlink="http://www.w3.org/1999/xlink" contentStyleType="text/css" height="374px" preserveAspectRatio="none" style="width:311px;height:374px;" version="1.1" viewBox="0 0 311 374" width="311px" zoomAndPan="magnify"><defs/><g><!--class gcp_instance--><g id="elem_gcp_instance"><rect codeLine="23" fill="#3D176E" height="39.7891" id="gcp_instance" rx="2.5" ry="2.5" style="stroke:#000D19;stroke-width:0.5;" width="149" x="89.5" y="328.58"/><ellipse cx="104.5" cy="348.4745" fill="#ADD1B2" rx="11" ry="11" style="stroke:#181818;stroke-width:1.0;"/><path d="M107.4688,354.1152 Q106.8906,354.412 106.25,354.5527 Q105.6094,354.7089 104.9063,354.7089 Q102.4063,354.7089 101.0781,353.0683 Q99.7656,351.412 99.7656,348.287 Q99.7656,345.162 101.0781,343.5058 Q102.4063,341.8495 104.9063,341.8495 Q105.6094,341.8495 106.25,342.0058 Q106.9063,342.162 107.4688,342.4589 L107.4688,345.1777 Q106.8438,344.5995 106.25,344.3339 Q105.6563,344.0527 105.0313,344.0527 Q103.6875,344.0527 103,345.1308 Q102.3125,346.1933 102.3125,348.287 Q102.3125,350.3808 103,351.4589 Q103.6875,352.5214 105.0313,352.5214 Q105.6563,352.5214 106.25,352.2558 Q106.8438,351.9745 107.4688,351.3964 L107.4688,354.1152 Z " fill="#000000"/><text fill="#D9B8FF" font-family="Helvetica" font-size="17" lengthAdjust="spacing" textLength="107" x="123.5" y="354.3598">gcp_instance</text></g><!--class gcp_resource--><g id="elem_gcp_resource"><rect codeLine="26" fill="#3D176E" height="39.7891" id="gcp_resource" rx="2.5" ry="2.5" style="stroke:#000D19;stroke-width:0.5;" width="150" x="7" y="167.79"/><ellipse cx="22" cy="187.6845" fill="#ADD1B2" rx="11" ry="11" style="stroke:#181818;stroke-width:1.0;"/><path d="M24.9688,193.3252 Q24.3906,193.622 23.75,193.7627 Q23.1094,193.9189 22.4063,193.9189 Q19.9063,193.9189 18.5781,192.2783 Q17.2656,190.622 17.2656,187.497 Q17.2656,184.372 18.5781,182.7158 Q19.9063,181.0595 22.4063,181.0595 Q23.1094,181.0595 23.75,181.2158 Q24.4063,181.372 24.9688,181.6689 L24.9688,184.3877 Q24.3438,183.8095 23.75,183.5439 Q23.1563,183.2627 22.5313,183.2627 Q21.1875,183.2627 20.5,184.3408 Q19.8125,185.4033 19.8125,187.497 Q19.8125,189.5908 20.5,190.6689 Q21.1875,191.7314 22.5313,191.7314 Q23.1563,191.7314 23.75,191.4658 Q24.3438,191.1845 24.9688,190.6064 L24.9688,193.3252 Z " fill="#000000"/><text fill="#D9B8FF" font-family="Helvetica" font-size="17" lengthAdjust="spacing" textLength="108" x="41" y="193.5698">gcp_resource</text></g><!--class instance--><g id="elem_instance"><rect codeLine="29" fill="#3D176E" height="39.7891" id="instance" rx="2.5" ry="2.5" style="stroke:#000D19;stroke-width:0.5;" width="112" x="192" y="167.79"/><ellipse cx="207" cy="187.6845" fill="#ADD1B2" rx="11" ry="11" style="stroke:#181818;stroke-width:1.0;"/><path d="M209.9688,193.3252 Q209.3906,193.622 208.75,193.7627 Q208.1094,193.9189 207.4063,193.9189 Q204.9063,193.9189 203.5781,192.2783 Q202.2656,190.622 202.2656,187.497 Q202.2656,184.372 203.5781,182.7158 Q204.9063,181.0595 207.4063,181.0595 Q208.1094,181.0595 208.75,181.2158 Q209.4063,181.372 209.9688,181.6689 L209.9688,184.3877 Q209.3438,183.8095 208.75,183.5439 Q208.1563,183.2627 207.5313,183.2627 Q206.1875,183.2627 205.5,184.3408 Q204.8125,185.4033 204.8125,187.497 Q204.8125,189.5908 205.5,190.6689 Q206.1875,191.7314 207.5313,191.7314 Q208.1563,191.7314 208.75,191.4658 Q209.3438,191.1845 209.9688,190.6064 L209.9688,193.3252 Z " fill="#000000"/><text fill="#D9B8FF" font-family="Helvetica" font-size="17" lengthAdjust="spacing" textLength="70" x="226" y="193.5698">instance</text></g><!--class resource--><g id="elem_resource"><rect codeLine="32" fill="#3D176E" height="39.7891" id="resource" rx="2.5" ry="2.5" style="stroke:#000D19;stroke-width:0.5;" width="113" x="107.5" y="7"/><ellipse cx="122.5" cy="26.8945" fill="#ADD1B2" rx="11" ry="11" style="stroke:#181818;stroke-width:1.0;"/><path d="M125.4688,32.5352 Q124.8906,32.832 124.25,32.9727 Q123.6094,33.1289 122.9063,33.1289 Q120.4063,33.1289 119.0781,31.4883 Q117.7656,29.832 117.7656,26.707 Q117.7656,23.582 119.0781,21.9258 Q120.4063,20.2695 122.9063,20.2695 Q123.6094,20.2695 124.25,20.4258 Q124.9063,20.582 125.4688,20.8789 L125.4688,23.5977 Q124.8438,23.0195 124.25,22.7539 Q123.6563,22.4727 123.0313,22.4727 Q121.6875,22.4727 121,23.5508 Q120.3125,24.6133 120.3125,26.707 Q120.3125,28.8008 121,29.8789 Q121.6875,30.9414 123.0313,30.9414 Q123.6563,30.9414 124.25,30.6758 Q124.8438,30.3945 125.4688,29.8164 L125.4688,32.5352 Z " fill="#000000"/><text fill="#D9B8FF" font-family="Helvetica" font-size="17" lengthAdjust="spacing" textLength="71" x="141.5" y="32.7798">resource</text></g><!--reverse link gcp_resource to gcp_instance--><g id="link_gcp_resource_gcp_instance"><path codeLine="35" d="M100.1488,223.8335 C115.9088,254.3535 138.29,297.69 154.07,328.25 " fill="none" id="gcp_resource-backto-gcp_instance" style="stroke:#FFAF37;stroke-width:2.0;"/><polygon fill="none" points="91.89,207.84,94.8176,226.5864,105.4799,221.0806,91.89,207.84" style="stroke:#FFAF37;stroke-width:2.0;"/></g><!--reverse link instance to gcp_instance--><g id="link_instance_gcp_instance"><path codeLine="36" d="M229.4511,223.7498 C213.3011,254.2698 190.34,297.69 174.17,328.25 " fill="none" id="instance-backto-gcp_instance" style="stroke:#FFAF37;stroke-width:2.0;"/><polygon fill="none" points="237.87,207.84,224.1479,220.9435,234.7544,226.5561,237.87,207.84" style="stroke:#FFAF37;stroke-width:2.0;"/></g><!--reverse link resource to gcp_resource--><g id="link_resource_gcp_resource"><path codeLine="37" d="M145.8512,63.0435 C130.0912,93.5635 107.71,136.9 91.93,167.46 " fill="none" id="resource-backto-gcp_resource" style="stroke:#FFAF37;stroke-width:2.0;"/><polygon fill="none" points="154.11,47.05,140.5201,60.2906,151.1824,65.7964,154.11,47.05" style="stroke:#FFAF37;stroke-width:2.0;"/></g><!--reverse link resource to instance--><g id="link_resource_instance"><path codeLine="38" d="M182.5489,62.9598 C198.6989,93.4798 221.66,136.9 237.83,167.46 " fill="none" id="resource-backto-instance" style="stroke:#FFAF37;stroke-width:2.0;"/><polygon fill="none" points="174.13,47.05,177.2456,65.7661,187.8521,60.1535,174.13,47.05" style="stroke:#FFAF37;stroke-width:2.0;"/></g><!--SRC=[XP3DReCm48JlF8Mbd96WKKkGUacGglOILKtlbR7NO04sMfj6wS-xjpGDCeOarvblTsQtb1m8DAqza0QQ7D04ffAgfKWRiaRK-qpN6ib222gMYMy-Q6Ml0blQ07c4-XsiPDGdNal9AWN6a1l7sb1M5QWxnO_hBL9bVYrGrg6ocXgpjXPbtbbmol0qNmdXa_xInPB7oHrCC8qSy1-9eeZ7gOzSZRfuzq3iv0UGs7tQLbkOr9n4_54NM_Q4Kt9owCa_s_6PSYvLGMuTxUNO2HNWID-LbEjzJmjQ6pV6M43Gzj12DhaAqXKNoIpyT0uEMFywKh3sJIfZgM90FeFWsz4HZEvmhC-nOsuqUVyLXk4e91Wsp7WpSoV9zuQP7m00]--></g></svg>

<svg xmlns="http://www.w3.org/2000/svg" width="311" height="374" viewBox="0 0 311 374"><rect width="149" height="39.789" x="89.5" y="328.58" fill="#3D176E" rx="2.5" ry="2.5" style="stroke:#000d19;stroke-width:.5"/><circle cx="104.5" cy="348.474" r="11" fill="#ADD1B2" style="stroke:#181818;stroke-width:1"/><path d="M107.469 354.115q-.578.297-1.219.438-.64.156-1.344.156-2.5 0-3.828-1.64-1.312-1.657-1.312-4.782t1.312-4.781q1.328-1.656 3.828-1.656.703 0 1.344.156.656.156 1.219.453v2.719q-.625-.579-1.219-.844-.594-.281-1.219-.281-1.344 0-2.031 1.078-.687 1.062-.687 3.156t.687 3.172q.688 1.062 2.031 1.062.625 0 1.219-.265.594-.281 1.219-.86z"/><text x="123.5" y="354.36" fill="#D9B8FF" font-family="Helvetica" font-size="17" textLength="107">gcp_instance</text><rect width="150" height="39.789" x="7" y="167.79" fill="#3D176E" rx="2.5" ry="2.5" style="stroke:#000d19;stroke-width:.5"/><circle cx="22" cy="187.685" r="11" fill="#ADD1B2" style="stroke:#181818;stroke-width:1"/><path d="M24.969 193.325q-.578.297-1.219.438-.64.156-1.344.156-2.5 0-3.828-1.64-1.312-1.657-1.312-4.782t1.312-4.781q1.328-1.656 3.828-1.656.703 0 1.344.156.656.156 1.219.453v2.719q-.625-.578-1.219-.844-.594-.281-1.219-.281-1.343 0-2.031 1.078-.687 1.062-.687 3.156t.687 3.172q.688 1.062 2.031 1.062.625 0 1.219-.265.594-.281 1.219-.86z"/><text x="41" y="193.57" fill="#D9B8FF" font-family="Helvetica" font-size="17" textLength="108">gcp_resource</text><rect width="112" height="39.789" x="192" y="167.79" fill="#3D176E" rx="2.5" ry="2.5" style="stroke:#000d19;stroke-width:.5"/><circle cx="207" cy="187.685" r="11" fill="#ADD1B2" style="stroke:#181818;stroke-width:1"/><path d="M209.969 193.325q-.578.297-1.219.438-.64.156-1.344.156-2.5 0-3.828-1.64-1.312-1.657-1.312-4.782t1.312-4.781q1.328-1.656 3.828-1.656.703 0 1.344.156.656.156 1.219.453v2.719q-.625-.578-1.219-.844-.594-.281-1.219-.281-1.344 0-2.031 1.078-.687 1.062-.687 3.156t.687 3.172q.688 1.062 2.031 1.062.625 0 1.219-.265.594-.281 1.219-.86z"/><text x="226" y="193.57" fill="#D9B8FF" font-family="Helvetica" font-size="17" textLength="70">instance</text><rect width="113" height="39.789" x="107.5" y="7" fill="#3D176E" rx="2.5" ry="2.5" style="stroke:#000d19;stroke-width:.5"/><circle cx="122.5" cy="26.895" r="11" fill="#ADD1B2" style="stroke:#181818;stroke-width:1"/><path d="M125.469 32.535q-.578.297-1.219.438-.64.156-1.344.156-2.5 0-3.828-1.64-1.312-1.657-1.312-4.782t1.312-4.781q1.328-1.656 3.828-1.656.703 0 1.344.156.656.156 1.219.453v2.719q-.625-.578-1.219-.844-.594-.281-1.219-.281-1.344 0-2.031 1.078-.687 1.062-.687 3.156t.687 3.172q.688 1.062 2.031 1.062.625 0 1.219-.265.594-.281 1.219-.86z"/><text x="141.5" y="32.78" fill="#D9B8FF" font-family="Helvetica" font-size="17" textLength="71">resource</text><path fill="none" d="M100.149 223.834c15.76 30.52 38.141 73.856 53.921 104.416M91.89 207.84l2.928 18.746 10.662-5.505zm137.561 15.91c-16.15 30.52-39.111 73.94-55.281 104.5m63.7-120.41-13.722 13.103 10.606 5.613zM145.851 63.044C130.091 93.564 107.71 136.9 91.93 167.46m62.18-120.41-13.59 13.24 10.662 5.506zm28.439 15.91c16.15 30.52 39.111 73.94 55.281 104.5m-63.7-120.41 3.116 18.716 10.606-5.613z" style="stroke:#ffaf37;stroke-width:2"/></svg>
